X: 242
T: Mrs McDonald's Favorite
R: march, reel
M: 2/4
L: 1/16
Z: 2012 John Chambers <jc:trillian.mit.edu>
B: J. Anderson "Budget of Strathspeys, Reels and Country Dances" (Early 1800s) p.24 #2
F: http://imslp.org/wiki/Anderson%27s_Budget_of_Strathspeys,_Reels_and_Country_Dances_(Various)
K: Amix
|:\
A3Bc2c2 | A3B c4 | edcd B2B2 | edcd B4 |\
A3Bc2c2 | A3B c4 | Bfed cBA^G | A2A2 A4 :|
|:\
e3dc2c2 | a2a2 e4 | edcd B2B2 | edcd B4 |\
e3dc2c2 | a2a2 e4 | Bfed cBA^G | A2A2 A4 :|

%%sep 2 1 500
%%sep 1 1 500

